packages/product-components/src/images/networks/eos.svg

<svg width="32" height="32" viewBox="0 0 32 32" fill="none" xmlns="http://www.w3.org/2000/svg">
<path d="M0 8C0 3.58172 3.58172 0 8 0H24C28.4183 0 32 3.58172 32 8V24C32 28.4183 28.4183 32 24 32H8C3.58172 32 0 28.4183 0 24V8Z" fill="#1F1F1F"/>
<path d="M16 4.5L10.618 11.906L8.364 22.854L16 27.5L23.636 22.854L21.336 11.86L16 4.5ZM9.606 22.348L11.308 14.022L15.172 25.752L9.606 22.348ZM11.86 12.136L16 6.432L20.14 12.136L16 24.648L11.86 12.136ZM16.782 25.752L20.646 14.022L22.348 22.348L16.782 25.752Z" fill="white"/>
</svg>

<svg xmlns="http://www.w3.org/2000/svg" width="32" height="32" viewBox="0 0 32 32" fill="none">
    <path class="bg" fill="#1F1F1F" d="M0 8a8 8 0 0 1 8-8h16a8 8 0 0 1 8 8v16a8 8 0 0 1-8 8H8a8 8 0 0 1-8-8z"/>
    <path class="fg" fill="#fff" d="m16 4.5-5.382 7.406-2.254 10.948L16 27.5l7.636-4.646-2.3-10.994zM9.606 22.348l1.702-8.326 3.864 11.73zm2.254-10.212L16 6.432l4.14 5.704L16 24.648zm4.922 13.616 3.864-11.73 1.702 8.326z"/>
</svg>
